X: 3
T: Old Hag, You Have Killed Me
R: jig
M: 6/8
L: 1/8
K: Dmix
FDD cAA|ded cAG|(3AcA A ABG|(3AcA A A2G|
F(3DDD cAA|ded cAF|(3GcG G GcA|1 GAG G2E:|2 GAG G2e||
|:~f3 gfg|(3agf d cAG|~A3 ABG|ABA A2e|
~f3 gfg|afd cAF|~G3 GcA|1 GAG G2e:|2 GAG G2E||


Tune 1359	Setting 1359

